X:24
T:Boys of the Lough
Z: id:dc-reel-24
M:C
L:1/8
K:D Major
dB|A2FD FAAB|defd efdB|A2FA BdAF|EDEF E2dB|!
A2FD FAAB|defd efdB|A2FA BdAF|EDEF D2:|!
de|faag fgfe|defd efdB|A2FA BdAF|EDEF E2de|!
faag fgfe|defd efdB|A2FA BdAF|EDEF D2:|!

